!!!COM: Gaspar van Weerbeke
!!!CDT: ~1450-~1517
!!!OPR: Missa Princesse d'amourettes
!!!OTL: Kyrie
!!!ONM: 1
!!!AGN: Mass
!!!SCT: Gas0103a
!!!SCA: Gas0103a
!!!voices: 4
**kern	**text	**kern	**text	**kern	**text	**kern	**text
*part4	*part4	*part3	*part3	*part2	*part2	*part1	*part1
*staff4	*staff4	*staff3	*staff3	*staff2	*staff2	*staff1	*staff1
*I"Bassus	*	*I"Tenor	*	*I"Altus	*	*I"Superius	*
*I'B	*	*I'T	*	*I'A	*	*I'S	*
*clefF4	*	*clefGv2	*	*clefGv2	*	*clefG2	*
*k[]	*	*k[]	*	*k[]	*	*k[]	*
*M3/2	*	*M3/2	*	*M3/2	*	*M3/2	*
*met(O)	*	*met(O)	*	*met(O)	*	*met(O)	*
=1	=1	=1	=1	=1	=1	=1	=1
*	*	*	*	*	*	*	*edit
1.r	.	1.r	.	1G	Ky-	1g	Ky-
.	.	.	.	2G	-ri-	2g	-ri-
=2	=2	=2	=2	=2	=2	=2	=2
1.r	.	1.r	.	4.c	-e	4a	-e
.	.	.	.	.	.	4g	.
.	.	.	.	8B	.	.	.
*	*	*	*	*	*edit	*	*
.	.	.	.	2c	e-	4a	e-
.	.	.	.	.	.	4.cc	-ley-
.	.	.	.	[2d	-ley-	.	.
.	.	.	.	.	.	8a	.
.	.	.	.	.	.	[4b	.
=3	=3	=3	=3	=3	=3	=3	=3
1.r	.	1.r	.	4d]	.	4b]	.
.	.	.	.	4c	.	2a	.
.	.	.	.	2B	.	.	.
.	.	.	.	.	.	4g	.
.	.	.	.	2A	-son,	4a	.
.	.	.	.	.	.	8gL	.
.	.	.	.	.	.	8fJ	.
=4	=4	=4	=4	=4	=4	=4	=4
1.r	.	1.r	.	2r	.	2e	-son,
.	.	.	.	2B	Ky-	4r	.
.	.	.	.	.	.	2d	Ky-
.	.	.	.	4.G	-ri-	.	.
.	.	.	.	.	.	[4e	-ri-
.	.	.	.	8F	.	.	.
!!LO:LB:g=original
=5	=5	=5	=5	=5	=5	=5	=5
1.r	.	1.r	.	4G	.	4e]	.
.	.	.	.	2A	.	4.f	.
.	.	.	.	.	.	8d	.
.	.	.	.	4F	.	2d	.
.	.	.	.	2E	-e	.	.
.	.	.	.	.	.	4c#j	.
=6	=6	=6	=6	=6	=6	=6	=6
2r	.	1.r	.	4r	.	8dL	-e
.	.	.	.	.	.	8e	.
.	.	.	.	4.D	e-	8f	.
.	.	.	.	.	.	8gJ	.
4r	.	.	.	.	.	4a	.
.	.	.	.	8EL	.	.	.
*	*edit	*	*	*	*	*	*
4D	Ky-	.	.	8F	.	4dd	e-
.	.	.	.	8GJ	.	.	.
4F	-ri-	.	.	4A	.	4cc	.
4G	-e	.	.	4B	.	4b	.
=7	=7	=7	=7	=7	=7	=7	=7
2F	e-	1.r	.	4c	.	2a	.
.	.	.	.	2.d	-ley-	.	.
4.D	-ley-	.	.	.	.	4.f	-ley-
8E	.	.	.	.	.	8g	.
4F	.	.	.	4c	.	4a	.
4G	.	.	.	4B	.	4b	.
=8	=8	=8	=8	=8	=8	=8	=8
4A	.	1.r	.	4A	.	4cc	.
8G	.	.	.	4d	.	8b	.
4F	.	.	.	.	.	4a	.
.	.	.	.	4c	.	.	.
8E	.	.	.	.	.	8g	.
4G	.	.	.	4B	.	2g	.
2D	-son,	.	.	2A	-son,	.	.
.	.	.	.	.	.	4f#i	.
!!LO:LB:g=original
=9	=9	=9	=9	=9	=9	=9	=9
*lig	*	*	*edit	*	*	*	*
1.GG	Ky-	[1.G	Ky-	1G	Ky-	1g	-son,
.	.	.	.	2D	.	2r	.
=10	=10	=10	=10	=10	=10	=10	=10
1C	-ri-	1.G]	.	1E	-ri-	2g	Ky-
*Xlig	*	*	*	*	*	*	*
.	.	.	.	.	.	4.g	-ri-
.	.	.	.	.	.	8a	.
2GG	-e	.	.	2G	-e	2b	-e
=11	=11	=11	=11	=11	=11	=11	=11
4r	.	1.c	-ri-	4F	.	4a	.
4.AA	e-	.	.	4E	.	2cc	e-
.	.	.	.	2A	.	.	.
8BBL	.	.	.	.	.	.	.
8C	.	.	.	.	.	4a	.
8DJ	.	.	.	.	.	.	.
2E	.	.	.	4r	.	2g	.
.	.	.	.	4G	e-	.	.
=12	=12	=12	=12	=12	=12	=12	=12
4D	.	2.d	-e	4A	-ley-	4f	.
4G	-ley-	.	.	4G	.	2b-i	-ley-
4D	.	.	.	2A	-son,	.	.
4F	.	4c	.	.	.	4a	.
2G	-son,	2B-j	.	4r	.	4.g	.
.	.	.	.	[4d	Ky-	.	.
.	.	.	.	.	.	8f	.
!!LO:LB:g=original
=13	=13	=13	=13	=13	=13	=13	=13
2D	Ky-	1A	.	4d]	.	2f	-son,
.	.	.	.	4d	-ri-	.	.
4.D	-ri-	.	.	4.d	-e,	4r	.
.	.	.	.	.	.	4.a	Ky-
8E	.	.	.	8c	.	.	.
2F	.	2r	.	2A	.	.	.
.	.	.	.	.	.	8gL	.
.	.	.	.	.	.	8f	.
.	.	.	.	.	.	8eJ	.
=14	=14	=14	=14	=14	=14	=14	=14
*	*	*lig	*	*	*	*	*
2G	.	2B	e-	4r	.	2d	-ri-
.	.	.	.	4.g	Ky-	.	.
1C	-e	2.G	.	.	.	4e	-e
*	*	*Xlig	*	*	*	*	*
.	.	.	.	8fL	.	.	.
.	.	.	.	8e	.	4.g	e-
.	.	.	.	8dJ	.	.	.
.	.	.	.	4e	-ri-	.	.
.	.	.	.	.	.	8fL	.
.	.	[4A	-ley-	[4c	-e	8e	.
.	.	.	.	.	.	8dJ	.
=15	=15	=15	=15	=15	=15	=15	=15
4AA	e-	4A]	.	4c]	.	4c	.
2C	.	2G	.	2c	e-	2e	.
4D	.	4F	.	4.A	-ley-	2d	-ley-
2AA	.	2E	.	.	.	.	.
.	.	.	.	8G	.	.	.
.	.	.	.	4E	.	4c#i	.
=16	=16	=16	=16	=16	=16	=16	=16
8AL	-ley-	1D	-son,	2.F	-son,	2d	-son,
8G	.	.	.	.	.	.	.
8F	.	.	.	.	.	.	.
8EJ	.	.	.	.	.	.	.
4D	.	.	.	.	.	4r	.
8CL	.	.	.	4D	Ky-	4a	Ky-
8BBJ	.	.	.	.	.	.	.
2AA	-son,	4r	.	4E	-ri-	2cc	-ri-
.	.	4A	Ky-	4F	.	.	.
!!LO:PB:g=original
=17	=17	=17	=17	=17	=17	=17	=17
2GG	Ky-	2.d	-ri-	2G	-e	4.b	.
.	.	.	.	.	.	8a	.
4.D	-ri-	.	.	2r	.	4b	.
.	.	4d	-e	.	.	2a	-e
8E	.	.	.	.	.	.	.
4F	.	4c	.	4A	e-	.	.
4G	.	4B	.	4B	.	4g	.
=18	=18	=18	=18	=18	=18	=18	=18
2F	-e	2A	.	4.c	-ley-	4a	e-
.	.	.	.	.	.	4cc	.
.	.	.	.	8B	.	.	.
4G	.	4r	.	4G	.	4b	.
*	*Xedit	*	*	*	*	*	*
4D	e-	4.d	e-	4A	-son,	2a	.
4F	.	.	.	4r	.	.	.
.	.	8c	.	.	.	.	.
*	*	*	*	*	*Xedit	*	*
4G	.	4B	.	4d	e-	4b	.
=19	=19	=19	=19	=19	=19	=19	=19
4.F	-ley-	1.A	-ley-	4f	-ley-	8ccL	-ley-
.	.	.	.	.	.	8b	.
.	.	.	.	4c	.	8a	.
8E	.	.	.	.	.	8gJ	.
4D	.	.	.	4d	.	4f	.
4C	.	.	.	4e	.	2g	.
2D	.	.	.	2d	.	.	.
.	.	.	.	.	.	4f#i	.
=20	=20	=20	=20	=20	=20	=20	=20
1.GGl	-son.	1.Gl	-son.	1.Bl 1.dl	-son.	1.gl	-son.
!!LO:LB:g=original
=21||	=21||	=21||	=21||	=21||	=21||	=21||	=21||
*M2/2	*	*M2/2	*	*M2/2	*	*M2/2	*
*met(C|)	*	*met(C|)	*	*met(C|)	*	*met(C|)	*
*	*	*	*	*	*	*	*Xedit
1r	.	1r	.	1G	-Chri-	1g	Chri-
=22	=22	=22	=22	=22	=22	=22	=22
1r	.	1r	.	1c	-ste	4.g	-ste
.	.	.	.	.	.	8f	.
.	.	.	.	.	.	4g	.
*	*	*	*	*	*	*	*edit
.	.	.	.	.	.	[4a	e-
=23	=23	=23	=23	=23	=23	=23	=23
*	*	*	*	*lig	*edit	*	*
1r	.	1r	.	2d	e-	4a]	.
.	.	.	.	.	.	8gL	.
.	.	.	.	.	.	8fJ	.
.	.	.	.	2c	.	2e	.
=24	=24	=24	=24	=24	=24	=24	=24
1r	.	1r	.	1B	.	2d	.
*	*	*	*	*Xlig	*	*	*
.	.	.	.	.	.	[2g	-ley-
=25	=25	=25	=25	=25	=25	=25	=25
*	*	*	*	*lig	*	*	*
1r	.	1r	.	1A	.	2g]	.
.	.	.	.	.	.	2f#i	.
=26	=26	=26	=26	=26	=26	=26	=26
1GG	Chri-	1r	.	1B	.	1g	-son,
*	*	*	*	*Xlig	*	*	*
=27	=27	=27	=27	=27	=27	=27	=27
1C	-ste	1r	.	4.G	.	1r	.
.	.	.	.	8F	.	.	.
.	.	.	.	4G	.	.	.
.	.	.	.	[4A	.	.	.
!!LO:LB:g=original
=28	=28	=28	=28	=28	=28	=28	=28
*lig	*edit	*	*	*	*	*	*
2D	e-	1r	.	4A]	.	1r	.
.	.	.	.	8GL	.	.	.
.	.	.	.	8FJ	.	.	.
2C	.	.	.	2E	.	.	.
=29	=29	=29	=29	=29	=29	=29	=29
1BB	.	1r	.	2D	.	2r	.
*Xlig	*	*	*	*	*	*	*
.	.	.	.	[2G	-ley-	2d	e-
=30	=30	=30	=30	=30	=30	=30	=30
1AA	.	1r	.	2G]	.	4e	.
.	.	.	.	.	.	4.f	-ley-
.	.	.	.	2F#j	.	.	.
.	.	.	.	.	.	8eL	.
.	.	.	.	.	.	8d	.
.	.	.	.	.	.	8cJ	.
=31	=31	=31	=31	=31	=31	=31	=31
2r	.	1r	.	1G	-son,	4B	.
.	.	.	.	.	.	4G	.
[2G	-ley-	.	.	.	.	4B	.
.	.	.	.	.	.	[4d	.
=32	=32	=32	=32	=32	=32	=32	=32
2G]	.	1r	.	1D	Chri-	4d]	.
.	.	.	.	.	.	8cL	.
.	.	.	.	.	.	8BJ	.
2F#i	.	.	.	.	.	2A	-son,
=33	=33	=33	=33	=33	=33	=33	=33
2G	-son,	1r	.	2d	-ste,	2r	.
4r	.	.	.	4B	.	[2g	Chri-
4C	e-	.	.	4c	.	.	.
!!LO:LB:g=original
=34	=34	=34	=34	=34	=34	=34	=34
*lig	*	*	*	*	*	*	*
2E	.	1r	.	4B	.	2g]	.
.	.	.	.	4G	.	.	.
2D	.	.	.	2A	.	2f#i	.
*Xlig	*	*	*	*	*	*	*
=35	=35	=35	=35	=35	=35	=35	=35
2E	.	1r	.	2G	Chri-	2g	-ste
4C	.	.	.	[2c	-ste	4e	e-
[4F	-ley-	.	.	.	.	[4a	-ley
=36	=36	=36	=36	=36	=36	=36	=36
4F]	.	1r	.	4c]	.	4a]	.
4E	.	.	.	4c	e-	4g	.
4D	.	.	.	4.d	-ley-	4f	.
[4G	.	.	.	.	.	4d	son,
.	.	.	.	8c	.	.	.
=37	=37	=37	=37	=37	=37	=37	=37
4G]	.	1r	.	2B	.	2g	Chri-
4E	.	.	.	.	.	.	.
4.F	.	.	.	2A	-son,	[2cc	-ste
8G	.	.	.	.	.	.	.
=38	=38	=38	=38	=38	=38	=38	=38
2A	.	1r	.	2r	.	4cc]	.
.	.	.	.	.	.	4cc	e-
*lig	*	*	*	*	*	*	*
2B	.	.	.	2G	Chri-	4.dd	-ley-
.	.	.	.	.	.	8cc	.
=39	=39	=39	=39	=39	=39	=39	=39
2G	.	1r	.	2.d	-ste	2b	.
*Xlig	*	*	*	*	*	*	*
[2D	-son,	.	.	.	.	2a	-son,
.	.	.	.	4e	e-	.	.
!!LO:LB:g=original
=40	=40	=40	=40	=40	=40	=40	=40
2D]	.	1r	.	2f	-ley-	2r	.
4r	.	.	.	4g	.	2b	Chri-
4G	e-	.	.	[4e	.	.	.
=41	=41	=41	=41	=41	=41	=41	=41
4.E	-ley-	1r	.	4e]	.	4.g	-ste
.	.	.	.	8dL	.	.	.
8F	.	.	.	8cJ	.	8a	.
4G	.	.	.	4B	.	4b	.
4E	.	.	.	4c	.	[4a	.
=42	=42	=42	=42	=42	=42	=42	=42
2D	.	1r	.	4d	.	4a]	.
.	.	.	.	4B	.	8gL	.
.	.	.	.	.	.	8fJ	.
2C	-son,	.	.	4c	.	2e	.
.	.	.	.	[4G	-son,	.	.
=43	=43	=43	=43	=43	=43	=43	=43
1r	.	1r	.	2.G]	.	2d	e-
.	.	.	.	.	.	4.B	-ley-
.	.	.	.	4E	e-	.	.
.	.	.	.	.	.	8c	.
=44	=44	=44	=44	=44	=44	=44	=44
1r	.	1r	.	4C	.	4e	.
.	.	.	.	[2.G	-ley-	2d	.
.	.	.	.	.	.	8cL	.
.	.	.	.	.	.	8BJ	.
=45	=45	=45	=45	=45	=45	=45	=45
2r	.	1r	.	4G]	.	2A	.
.	.	.	.	4F#i	.	.	.
2GG	Chri-	.	.	2G	-son,	2G	-son,
!!LO:PB:g=original
=46	=46	=46	=46	=46	=46	=46	=46
2.C	-ste	1r	.	8GL	Chri-	2r	.
.	.	.	.	8F	.	.	.
.	.	.	.	8E	.	.	.
.	.	.	.	8DJ	.	.	.
.	.	.	.	2E	.	4.g	Chri-
4C	e-	.	.	.	.	.	.
.	.	.	.	.	.	8a	.
=47	=47	=47	=47	=47	=47	=47	=47
4.D	-ley-	1r	.	4D	-ste	4b	.
.	.	.	.	4.d	e-	4a	.
8C	.	.	.	.	.	.	.
2BB	.	.	.	.	.	4b	.
.	.	.	.	8c	.	.	.
.	.	.	.	4d	.	[4dd	-ste
=48	=48	=48	=48	=48	=48	=48	=48
2AA	.	1r	.	2e	-ley-	4dd]	.
.	.	.	.	.	.	4cc	.
2BB	.	.	.	[2d	-son,	4.dd	e-
.	.	.	.	.	.	8cc	.
=49	=49	=49	=49	=49	=49	=49	=49
2GG	-son,	1r	.	2d]	.	4.b	.
.	.	.	.	.	.	8a	.
4G	e-	.	.	4r	.	4b	.
4A	.	.	.	4c	e-	4cc	.
=50	=50	=50	=50	=50	=50	=50	=50
4G	.	1r	.	4d	.	4b	.
4F	.	.	.	4.A	-ley-	4.cc	-ley-
2E	-ley-	.	.	.	.	.	.
.	.	.	.	8B	.	8bL	.
.	.	.	.	4c	.	8a	.
.	.	.	.	.	.	8gJ	.
=51	=51	=51	=51	=51	=51	=51	=51
[1D	-son,	1r	.	4.d	.	4.f	.
.	.	.	.	8e	.	8g	.
.	.	.	.	4.f	.	8aL	.
.	.	.	.	.	.	8b-iJ	.
.	.	.	.	.	.	4a	.
.	.	.	.	8e	.	.	.
!!LO:LB:g=original
=52	=52	=52	=52	=52	=52	=52	=52
2D]	.	1r	.	8dL	.	4b-i	.
.	.	.	.	8cJ	.	.	.
.	.	.	.	2d	.	4a	.
4G	e-	.	.	.	.	4b-i	.
*	*	*	*	*	*	*lig	*
4A	.	.	.	4c	.	[4a	.
=53	=53	=53	=53	=53	=53	=53	=53
4F	-ley-	1r	.	4d	.	4a]	.
4G	.	.	.	4B-i	.	2g	.
*	*	*	*	*	*	*Xlig	*
2D	-son,	.	.	2A	-son,	.	.
.	.	.	.	.	.	4f	.
=54	=54	=54	=54	=54	=54	=54	=54
4.GG	e-	1r	.	2.G	e-	4e	.
.	.	.	.	.	.	4.d	.
8AA	.	.	.	.	.	.	.
8BBL	.	.	.	.	.	.	.
8CJ	.	.	.	.	.	8cL	.
4D	.	.	.	4F	.	8B	.
.	.	.	.	.	.	8AJ	.
=55	=55	=55	=55	=55	=55	=55	=55
4E	.	1r	.	4G	.	4G	.
2D	-ley-	.	.	4F	.	4A	.
.	.	.	.	4G	.	4B	.
4C	.	.	.	4E	.	4c	.
=56	=56	=56	=56	=56	=56	=56	=56
1D	-son,	1r	.	[1F#	-ley-	2A	-son,
.	.	.	.	.	.	4r	.
.	.	.	.	.	.	[4d	Chri-
=57	=57	=57	=57	=57	=57	=57	=57
2r	.	1r	.	1F#]	.	4d]	.
.	.	.	.	.	.	8cL	.
.	.	.	.	.	.	8BJ	.
4r	.	.	.	.	.	2A	-ste,
[4D	Chri-	.	.	.	.	.	.
!!LO:LB:g=original
=58	=58	=58	=58	=58	=58	=58	=58
*	*	*	*	*lig	*	*	*
4D]	.	1r	.	1F#i	-son	1r	.
8CL	.	.	.	.	.	.	.
8BBJ	.	.	.	.	.	.	.
2AA	.	.	.	.	.	.	.
=59	=59	=59	=59	=59	=59	=59	=59
2GG	-ste,	1r	.	1G	.	4r	.
*	*	*	*	*Xlig	*	*	*
.	.	.	.	.	.	2g	Chri-
4r	.	.	.	.	.	.	.
[4G	Chri-	.	.	.	.	8fL	.
.	.	.	.	.	.	8eJ	.
=60	=60	=60	=60	=60	=60	=60	=60
*	*	*	*	*	*Xedit	*	*
8G]L	.	1r	.	2B	e-	2d	-ste
8F	.	.	.	.	.	.	.
8E	.	.	.	.	.	.	.
8DJ	.	.	.	.	.	.	.
2C	-ste	.	.	[2c	.	4r	.
*	*	*	*	*	*	*	*Xedit
.	.	.	.	.	.	[4cc	e-
=61	=61	=61	=61	=61	=61	=61	=61
2F	e-	1r	.	4c]	.	4cc]	.
.	.	.	.	4d	.	8bL	.
.	.	.	.	.	.	8aJ	.
4.E	-ley-	.	.	2e	-ley-	4g	.
.	.	.	.	.	.	4cc	-ley-
8F	.	.	.	.	.	.	.
=62	=62	=62	=62	=62	=62	=62	=62
4G	.	1r	.	4d	.	4b	.
4A	.	.	.	4c	.	2a	.
4D	.	.	.	2d	.	.	.
[4G	.	.	.	.	.	[4b	.
=63	=63	=63	=63	=63	=63	=63	=63
4G]	.	1r	.	4B	.	4b]	.
8FL	.	.	.	4c	.	8aL	.
8EJ	.	.	.	.	.	8gJ	.
2F	.	.	.	2A	.	8aL	.
.	.	.	.	.	.	8g	.
.	.	.	.	.	.	8f	.
.	.	.	.	.	.	8eJ	.
=64	=64	=64	=64	=64	=64	=64	=64
1D;	-son.	1r	.	1d;	-son.	1f#i;	-son.
!!LO:LB:g=original
=65||	=65||	=65||	=65||	=65||	=65||	=65||	=65||
*M3/2	*	*M3/2	*	*M3/2	*	*M3/2	*
*met(O)	*	*met(O)	*	*met(O)	*	*met(O)	*
*lig	*Xedit	*	*	*	*	*	*edit
1.GG	Ky-	1.r	.	2.G	Ky-	2.g	Ky-
.	.	.	.	4A	.	8fL	.
.	.	.	.	.	.	8eJ	.
.	.	.	.	2B	-ri-	2d	-ri-
=66	=66	=66	=66	=66	=66	=66	=66
*	*	*	*Xedit	*	*	*col	*
*	*	*lig	*	*	*	*lig	*
1.C	.	1.G	Ky-	2E	-e	1e	-e
.	.	.	.	4r	.	.	.
*Xlig	*	*	*	*	*edit	*	*
.	.	.	.	4e	e-	.	.
.	.	.	.	[2e	-ley-	[2g	.
=67	=67	=67	=67	=67	=67	=67	=67
*lig	*	*	*	*	*	*	*
2C	-ri-	1.c	.	2e]	.	2g]	.
*col	*	*	*	*	*	*	*
4.F	.	.	.	2f	.	1a	.
*Xlig	*	*	*	*	*	*Xcol	*
*	*	*	*	*	*	*Xlig	*
8G	.	.	.	.	.	.	.
*Xcol	*	*	*	*	*	*	*
2A	.	.	.	4e	.	.	.
.	.	.	.	4f	.	.	.
=68	=68	=68	=68	=68	=68	=68	=68
2.G	-e	1.d	.	2g	.	2.b	e-
.	.	.	.	4g	.	.	.
4D	.	.	.	4f	.	4a	.
2G	.	.	.	4d	.	2b	.
.	.	.	.	4g	.	.	.
=69	=69	=69	=69	=69	=69	=69	=69
2r	.	1c	.	1e	-son,	2.cc	-ley-
*	*edit	*Xlig	*	*	*	*	*
4.C	e-	.	.	.	.	.	.
.	.	.	.	.	.	8bL	.
8D	.	.	.	.	.	8aJ	.
2E	.	2B	.	2e	e-	2g	.
!!LO:PB:g=original
=70	=70	=70	=70	=70	=70	=70	=70
*lig	*	*lig	*	*	*	*	*
2F	-ley-	1.A	-ri-	4c	-ley-	4f	.
*	*	*	*	*lig	*	*	*
.	.	.	.	2f	.	2a	.
2D	.	.	.	.	.	.	.
.	.	.	.	2d	.	8gL	.
*Xlig	*	*	*	*Xlig	*	*	*
.	.	.	.	.	.	8fJ	.
2AA	-son,	.	.	.	.	2e	.
.	.	.	.	4c#i	.	.	.
=71	=71	=71	=71	=71	=71	=71	=71
2r	.	1B-X	.	1d	-son,	2d	-son,
*	*	*Xlig	*	*	*	*	*
1GG	Ky-	.	.	.	.	2r	.
.	.	2G	.	2B-i	Ky-	4.d	Ky-
.	.	.	.	.	.	8e	.
=72	=72	=72	=72	=72	=72	=72	=72
4.D	-ri-	[1.A	-e	4A	.	4.f	-ri-
.	.	.	.	4d	-ri-	.	.
8E	.	.	.	.	.	8g	.
1F	-e	.	.	2.c	-e	8aL	.
.	.	.	.	.	.	8bJ	.
.	.	.	.	.	.	4.cc	-e
.	.	.	.	.	.	8b	.
.	.	.	.	[4f	e-	[4a	.
=73	=73	=73	=73	=73	=73	=73	=73
2.D	e-	1A]	.	8fL]	.	8aL]	.
.	.	.	.	8eJ	.	8gJ	.
.	.	.	.	2d	.	2f	e-
4F	.	.	.	2.c	-ley-	8eL	.
.	.	.	.	.	.	8dJ	.
*	*	*	*edit	*	*	*	*
2C	-ley-	2G	e-	.	.	2e	.
!!LO:LB:g=original
=74	=74	=74	=74	=74	=74	=74	=74
*	*	*lig	*	*	*	*	*
2D	-son,	2F	-ley-	2A	.	2.d	-ley-
2r	.	1E	.	4.G	.	.	.
*	*	*Xlig	*	*	*	*	*
.	.	.	.	.	.	4c	.
.	.	.	.	8F	.	.	.
2AA	e-	.	.	8EL	.	4.c	.
.	.	.	.	8DJ	.	.	.
.	.	.	.	4C	-son,	.	.
.	.	.	.	.	.	8B	.
=75	=75	=75	=75	=75	=75	=75	=75
4BB	.	1D	-son,	4r	.	2d	-son,
2D	.	.	.	2F	e-	.	.
.	.	.	.	.	.	4r	.
4BB	.	.	.	4D	.	4d	e-
2AA	.	2A	e-	2C	.	4.e	.
.	.	.	.	.	.	8f	.
=76	=76	=76	=76	=76	=76	=76	=76
2.GG	-ley-	2.B	-ley-	2.D	-ley-	2g	-ley-
.	.	.	.	.	.	2d	-son,
4D	.	4A	.	4F	.	.	.
4E	.	4G	.	4G	.	2r	.
*	*	*	*	*lig	*	*	*
4D	.	4F	.	[4A	.	.	.
=77	=77	=77	=77	=77	=77	=77	=77
4BB	.	2G	-son,	4A]	.	4d	e-
4C	.	.	.	2G	.	4e	.
*	*	*	*	*Xlig	*	*	*
2AA	.	4r	.	.	.	8fL	.
.	.	.	.	.	.	8e	.
*	*	*	*Xedit	*	*	*	*
.	.	4A	e-	4F	.	8d	.
.	.	.	.	.	.	8cJ	.
4GG	-son,	4B	.	4G	.	4.d	-ley-
4F	e-	4A	.	4A	.	.	.
.	.	.	.	.	.	8c	.
!!LO:LB:g=original
=78	=78	=78	=78	=78	=78	=78	=78
4G	.	4G	.	4B	.	4B	.
4D	.	4F	.	2d	.	4A	.
*	*	*lig	*	*	*	*	*
2E	-ley-	2G	-ley-	.	.	4G	-son,
.	.	.	.	4c	.	2g	e-
*	*edit	*	*	*	*	*	*
2D	-son,	2A	.	2d	-son,	.	.
*	*	*Xlig	*	*	*	*	*
.	.	.	.	.	.	4f#j	.
=79	=79	=79	=79	=79	=79	=79	=79
*	*	*	*	*	*Xedit	*	*
2r	.	1.r	.	4e	e-	4.g	-ley-
.	.	.	.	4c	.	.	.
.	.	.	.	.	.	8e	.
*	*Xedit	*	*	*	*	*	*
4D	e-	.	.	4d	.	4f	.
4E	.	.	.	4B	.	4g	.
4F	.	.	.	4A	.	4a	.
4D	.	.	.	4d	.	4f	.
=80	=80	=80	=80	=80	=80	=80	=80
4G	.	1.r	.	4B	.	4g	.
4A	.	.	.	4c	.	4e	.
4B	.	.	.	4d	.	4d	.
4G	.	.	.	4B	.	2g	.
2D	-ley-	.	.	2A	-ley-	.	.
.	.	.	.	.	.	4f#i	.
=81	=81	=81	=81	=81	=81	=81	=81
4GG	.	[1.Gl	-son.	8BL	.	[1.gl	-son.
.	.	.	.	8A	.	.	.
4BB	.	.	.	8G	.	.	.
.	.	.	.	8FJ	.	.	.
4C	.	.	.	4E	.	.	.
4GG	.	.	.	4D	.	.	.
2C	.	.	.	2E	.	.	.
=82	=82	=82	=82	=82	=82	=82	=82
1.GGl	-son.	1.G]	.	1.Dl	-son.	1.g]	.
==	==	==	==	==	==	==	==
*-	*-	*-	*-	*-	*-	*-	*-
!!!system-decoration: [*]
!!!RDF**kern: j = editorial accidental, optional, paren up
!!!RDF**kern: i = editorial accidental
!!!RDF**kern: l = terminal breve
!!!PTL: Gaspar van Weerbeke: Collected Works. I. Masses, Part 1
!!!PPR: American Institute of Musicology
!!!PC#: Corpus Mensurabilis Musicae 106/I.1
!!!PDT: 2016
!!!PED: Pavanello, Agnese
!!!YEM: CC-BY-SA 4.0 (https://creativecommons.org/licenses/by-nc/4.0/legalcode)
!!!EED: Mair-Gruber, Roland
!!!EEV: 2021/11/01
